svgs/solid/paw-claws.svg

<svg xmlns="http://www.w3.org/2000/svg" viewBox="0 0 512 512"><!--! Font Awesome Pro 6.1.2 by @fontawesome - https://fontawesome.com License - https://fontawesome.com/license (Commercial License) Copyright 2022 Fonticons, Inc. --><path d="M192 20.69V71.23C210.3 81.03 226.3 100.2 234.5 124.9C248.8 167.7 234.2 211.1 201.9 221.7C169.6 232.2 131.8 206 117.5 163.1C113.5 151.2 111.8 139.3 111.1 127.1C111.1 102.3 121.6 77.45 138.9 58.4L178.1 15.31C182.1 9.9 191.1 13.38 191.1 20.69L192 20.69zM310.1 221.7C277.8 211.1 263.2 167.7 277.5 124.9C285.7 100.2 301.7 81.02 320 71.23V20.69C320 13.38 329 9.9 333.9 15.31L373.1 58.4C390.4 77.45 400 102.3 400 127.1C400.2 139.3 398.5 151.2 394.5 163.1C380.2 206 342.4 232.2 310.1 221.7L310.1 221.7zM100.4 230.6C119.2 263 114.7 300.7 90.16 314.7C65.65 328.8 30.49 313.9 11.63 281.4C3.718 267.8-.0714 253.3 .001 240L0 236.8C0 223.3 4.285 210.1 12.24 199.2L49.53 147.9C54.09 141.6 64 144.9 64 152.6V196.8C77.93 202.1 91.11 214.7 100.4 230.6V230.6zM69.21 433.2C121.6 291.9 214.7 256 256 256C297.3 256 390.4 291.9 442.8 433.2C446.4 442.9 448 453.3 448 463.7V465.3C448 491.1 427.1 512 401.3 512C389.8 512 378.4 510.6 367.3 507.8L279.3 485.8C263.1 482 248 482 232.7 485.8L144.7 507.8C133.6 510.6 122.2 512 110.7 512C84.93 512 64 491.1 64 465.3V463.7C64 453.3 65.6 442.9 69.21 433.2H69.21zM421.8 314.7C397.3 300.7 392.8 263 411.6 230.6C420.9 214.7 434.1 202.1 448 196.8V152.6C448 144.9 457.9 141.6 462.5 147.9L499.8 199.2C507.7 210.1 512 223.3 512 236.8V240C512.1 253.3 508.3 267.8 500.4 281.4C481.5 313.9 446.3 328.8 421.8 314.7V314.7z"/></svg>

<svg xmlns="http://www.w3.org/2000/svg" viewBox="0 0 512 512"><!--! Font Awesome Pro 6.2.0 by @fontawesome - https://fontawesome.com License - https://fontawesome.com/license (Commercial License) Copyright 2022 Fonticons, Inc. --><path d="M178.1 15.3C183 9.9 192 13.4 192 20.7V71.2c18.3 9.8 34.3 28.9 42.5 53.6c14.3 42.9-.3 86.2-32.6 96.8s-70.1-15.6-84.4-58.5c-4-11.9-5.7-23.9-5.5-35.2h0c0-25.7 9.6-50.6 26.9-69.6l39.2-43.1zm132 206.3c-32.3-10.6-46.9-53.9-32.6-96.8c8.2-24.7 24.2-43.8 42.5-53.6V20.7c0-7.3 9-10.8 13.9-5.4l39.2 43.1c17.3 19 26.9 43.9 26.9 69.6h0c.2 11.3-1.5 23.2-5.5 35.1c-14.3 42.9-52.1 69.1-84.4 58.5zm-209.7 8.9c18.9 32.4 14.3 70.1-10.2 84.1s-59.7-.9-78.5-33.3C3.7 267.8-.1 253.3 0 240H0v-3.2c0-13.5 4.3-26.7 12.2-37.6l37.3-51.3c4.6-6.3 14.5-3 14.5 4.7v44.2c13.9 6.1 27.1 17.8 36.4 33.7zM69.2 433.2C121.6 291.9 214.7 256 256 256s134.4 35.9 186.8 177.2c3.6 9.7 5.2 20.1 5.2 30.5v1.6c0 25.8-20.9 46.7-46.7 46.7c-11.5 0-22.9-1.4-34-4.2l-88-22c-15.3-3.8-31.3-3.8-46.6 0l-88 22c-11.1 2.8-22.5 4.2-34 4.2C84.9 512 64 491.1 64 465.3v-1.6c0-10.4 1.6-20.8 5.2-30.5zM421.8 314.7c-24.5-14-29.1-51.7-10.2-84.1c9.3-15.9 22.4-27.6 36.4-33.7V152.6c0-7.7 9.9-11 14.5-4.7l37.3 51.3c8 10.9 12.2 24.1 12.2 37.6V240h0c.1 13.3-3.7 27.8-11.6 41.4c-18.9 32.4-54 47.3-78.5 33.3z"/></svg>
